!!! OTL: Berkowitz243
!!! Chapter: 1
!!! Section: II
!!! Page: 56
!!! Mode: 
!!! Encoder: DJB
**kern
*staff1
*I"Piano
=1-
*clefF4
*k[f#c#]
*D:
*met(c|)
*M2/2
4D\
4D#\
4E\
8r
8AA/
=2
4E\
4E#\
4F#\
8r
8D\
=3
2G\
2G#\
=4
2A\
4r
4A#\
=5
4B\
4D\
4B\
8r
8D\
=6
4F#\
4G\
4G#\
4A\
=7
4AA/
4AA#/
4BB/
4BB#/
=8
2C#/
4D\
4r
==
*-
